X: 33187
T: Professor Delbert's Birthday
R: jig
M: 6/8
K: Amajor
|:A|cBA Bce|faf ecB|c2 A Bca|fec B2 A|
cBA Bce|faf ece|aee fec|cBA B2:|
|:c|AaA fec|eae fec|AaA fAe|cBA B2 c|
AaA fec|eae fef|aee fec|cBA B2:|

